X:5119
T:The Vanishing Lakes
M:4/4
R:Reel
L:1/8
Q:180
C:Aidan Crossey
K:D
|:ADDA BD (3DDD|BD (3DDD BD (3DDD|ADDA BD (3DDD|d3f edcB|
ADDA BD (3DDD|BD (3DDD BD (3DDD|d3f edcB|ABAF D4:||
|:eA (3AAA BA (3AAA|cA (3AAA dA (3AAA|e3f g3a|bgaf gfed|
eA (3AAA BA (3AAA|cA (3AAA dA (3AAA|e3f g3f|edce d4:||
